icons/Downloadicons.svg

<svg width="16" height="16" viewBox="0 0 16 16" fill="none" xmlns="http://www.w3.org/2000/svg">
<g clip-path="url(#clip0_4_241)">
<path d="M15.6221 7.16032L15.6227 7.16032C15.8535 7.1603 16.0468 7.33517 16.05 7.55918L16.05 7.55989L16.05 13.7009C16.05 14.4489 15.4053 15.05 14.6168 15.05H1.42339H1.42306C0.636236 15.0447 -0.0062946 14.4477 -0.0148486 13.7015L-0.0148519 13.7012L-0.0500602 7.56018L-0.0500619 7.55989C-0.050061 7.33369 0.144224 7.1556 0.37718 7.1556C0.610086 7.1556 0.804337 7.33362 0.804421 7.55974L0.80442 7.5596L0.754421 7.55989H0.804421L15.6221 7.16032ZM15.6221 7.16032C15.3907 7.16317 15.1986 7.33941 15.1955 7.56392V7.56461V13.7057C15.1955 14.0013 14.9394 14.2462 14.6168 14.2462H1.42364L15.6221 7.16032ZM0.839628 13.7005L0.78963 13.7009L0.839629 13.7007L0.839629 13.7006C0.839629 13.7006 0.839628 13.7005 0.839628 13.7005Z" fill="#3D3D3D" stroke="#3D3D3D" stroke-width="0.1"/>
<path d="M7.93124 11.1023L7.93115 11.1024L7.93338 11.1048C7.99498 11.1711 8.076 11.2179 8.16557 11.2393L8.16547 11.2397L8.17212 11.2404C8.2015 11.2434 8.23112 11.2435 8.2605 11.2406H8.32668C8.35402 11.2429 8.38152 11.2428 8.40886 11.2405L8.4089 11.2409L8.41544 11.2394C8.50606 11.2193 8.58794 11.172 8.64893 11.1042L8.64896 11.1042L8.65035 11.1025L11.4597 7.68806L11.4598 7.68809L11.4612 7.68621C11.5902 7.51353 11.5596 7.27606 11.3923 7.13815L11.3923 7.1381L11.3904 7.13662C11.2045 6.99826 10.9362 7.02656 10.7868 7.20184L10.7866 7.20216L8.73248 9.65284V1.35967C8.73248 1.13099 8.53793 0.95 8.30351 0.95C8.06909 0.95 7.87455 1.13099 7.87455 1.35967V9.6893L5.79546 7.16413L5.79547 7.16413L5.79508 7.16367C5.64751 6.98877 5.38061 6.96035 5.19634 7.09834L5.19633 7.09833L5.19541 7.09906C5.02347 7.23426 4.98994 7.47431 5.12068 7.64799L5.12065 7.64801L5.12184 7.64948L7.93124 11.1023Z" fill="#3D3D3D" stroke="#3D3D3D" stroke-width="0.1"/>
</g>
<defs>
<clipPath id="clip0_4_241">
<rect width="16" height="16" fill="white"/>
</clipPath>
</defs>
</svg>

<svg xmlns="http://www.w3.org/2000/svg" width="16" height="16" fill="currentColor" class="si si-Downloadicons" viewBox="0 0 16 16">
  <g stroke="#3D3D3D" stroke-width=".1" clip-path="url(#a)">
    <path d="M15.622 7.16c.232 0 .425.175.428.4v6.14c0 .749-.645 1.35-1.433 1.35H1.423c-.787-.005-1.43-.602-1.438-1.349l-.035-6.14V7.56c0-.226.194-.404.427-.404s.427.178.427.404h-.05.05zm0 0a.42.42 0 0 0-.427.404v6.142c0 .295-.256.54-.578.54H1.424zM.84 13.7H.79z"/>
    <path d="m7.931 11.102.002.003a.46.46 0 0 0 .233.134l.006.001q.045.004.088 0h.155a.44.44 0 0 0 .234-.136l.001-.002 2.81-3.414.001-.002a.397.397 0 0 0-.069-.548l-.002-.001a.45.45 0 0 0-.603.065l-2.055 2.45V1.36a.42.42 0 0 0-.428-.41.42.42 0 0 0-.43.41v8.33L5.796 7.163a.443.443 0 0 0-.599-.066V7.1a.393.393 0 0 0-.075.549v.001z"/>
  </g>
  <defs>
    <clipPath id="a">
      <path d="M0 0h16v16H0z"/>
    </clipPath>
  </defs>
</svg>
